X:1
T:Title
%%score ( 1 2 ) ( 3 4 )
L:1/8
Q:1/4=100
M:4/4
K:Eb
V:1 treble nm="Grand Piano, Soprano"
V:2 treble 
V:3 bass nm="Choir Pad, A Crown in Heaven"
V:4 bass 
V:1
 [EG][FA] [GB]2 [GB]>[GB] [Ge]2 | [Ge]>[Ge] [GB]>[GB] [Ac]>[GB] [EG]2 | %2
w: By~R.~A.~Glenn * * * * *||
 [GB]>[GB] [Ac]2 [Ac]2 [GB]>[GB] | [GB]>[EG] [DF]6 | [EG]>[FA] [GB]2 [GB]2 [Ge]2 | %5
w: |||
 [GB]2 [Ge]>[Bd] [Ac]>[GB] [Ec]2 | ce [EB]2 C-[CF] [EG]>[EG] | [EG]>[DF] E6 | [EG][FA] [GB]6 | %9
w: ||||
 [DF][EG] [FA]6 | [EG][EG] [EB]2 [EB]2 [EB][Ec] | [EB][EG] F2- [DF-][DF-] [DF]2 | %12
w: |||
 [EG][FA] [GB]2 [GB][GB] [GB]2 | [Ac][Ad] [Ge]6 | [Ec][Ec] [EB]2 [EB]2 [DB][DB] | [Ac][Ad] [Ge]6- | %16
w: ||||
 [Ge]2 z2 z4 |] %17
w: |
V:2
 x8 | x8 | x8 | x8 | x8 | x8 | E2 z2 .E2 z2 | x8 | x8 | x8 | x8 | z2 D2 z4 | x8 | x8 | x8 | x8 | %16
 x8 |] %17
V:3
 [E,B,]2 [E,B,]2 [E,B,]>[E,B,] [E,B,]2 | [E,B,]>[E,B,] [E,E]>[E,E] [E,E]>[E,E] [E,B,]2 | %2
 [E,E]>[E,E] [A,E]2 [A,E]2 [E,E]>[E,E] | [E,E]>[E,B,] [B,,B,]6 | %4
 [E,B,]>[E,B,] [E,B,]2 [E,B,]2 [E,B,]2 | [E,B,]2 [E,B,]>[E,B,] [E,B,]>[E,B,] A,2 | %6
 A,C [G,B,]2 B,-[A,B,] B,>B, | B,>[B,,A,] [E,G,]6 | z4 [E,B,][E,B,] [E,B,]2 | %9
 z4 [B,,B,][B,,B,] [B,,B,]2 | [E,B,][E,B,] [E,G,]2 [E,G,]2 [E,G,][E,A,] | %11
 [E,G,][E,B,] [B,,B,]2 [B,,B,][B,,B,] [B,,B,]2 | [E,B,][E,B,] [E,B,]6 | z4 [E,B,][E,B,] [E,B,]2 | %14
 [A,,A,][A,,A,] [B,,G,]2 [B,,G,]2 [B,,F,][B,,F,] | [B,,B,][B,,B,] [E,B,]6- | [E,B,]2 z2 z4 |] %17
V:4
 x8 | x8 | x8 | x8 | x8 | x8 | z4 .G,2 z2 | x8 | x8 | x8 | x8 | x8 | x8 | x8 | x8 | x8 | x8 |] %17

